polaris-icons/icons/new-icons/ViewportNarrowMajor.svg

<svg width="20" height="20" viewBox="0 0 20 20" fill="none" xmlns="http://www.w3.org/2000/svg">
<path d="M7.75 5C7.75 4.0335 8.5335 3.25 9.5 3.25H10.5C11.4665 3.25 12.25 4.0335 12.25 5V6.76C12.25 7.17421 11.9142 7.51 11.5 7.51C11.0858 7.51 10.75 7.17421 10.75 6.76V5C10.75 4.86193 10.6381 4.75 10.5 4.75H9.5C9.36193 4.75 9.25 4.86193 9.25 5V6.76C9.25 7.17421 8.91421 7.51 8.5 7.51C8.08579 7.51 7.75 7.17421 7.75 6.76V5Z" fill="#4A4A4A"/>
<path d="M8.5 12.49C8.91421 12.49 9.25 12.8258 9.25 13.24V15C9.25 15.1381 9.36193 15.25 9.5 15.25H10.5C10.6381 15.25 10.75 15.1381 10.75 15V13.24C10.75 12.8258 11.0858 12.49 11.5 12.49C11.9142 12.49 12.25 12.8258 12.25 13.24V15C12.25 15.9665 11.4665 16.75 10.5 16.75H9.5C8.5335 16.75 7.75 15.9665 7.75 15V13.24C7.75 12.8258 8.08579 12.49 8.5 12.49Z" fill="#4A4A4A"/>
<path d="M4 10C4 10.4142 4.33579 10.75 4.75 10.75H7.18974L6.47007 11.4697C6.17717 11.7626 6.17717 12.2374 6.47007 12.5303C6.76296 12.8232 7.23783 12.8232 7.53073 12.5303L9.53073 10.5303C9.67139 10.3897 9.75041 10.1989 9.7504 9.99996C9.75039 9.80104 9.67135 9.61026 9.53068 9.46962L7.53028 7.46962C7.23735 7.17675 6.76248 7.1768 6.46962 7.46972C6.17675 7.76265 6.1768 8.23752 6.46972 8.53038L7.18948 9.25H4.75C4.33579 9.25 4 9.58579 4 10Z" fill="#4A4A4A"/>
<path d="M15.2504 10.75C15.6646 10.75 16.0004 10.4142 16.0004 10C16.0004 9.58579 15.6646 9.25 15.2504 9.25H12.8109L13.5307 8.53038C13.8236 8.23752 13.8236 7.76265 13.5308 7.46972C13.2379 7.1768 12.763 7.17675 12.4701 7.46962L10.4697 9.46962C10.329 9.61026 10.25 9.80104 10.25 9.99996C10.25 10.1989 10.329 10.3897 10.4697 10.5303L12.4697 12.5303C12.7626 12.8232 13.2374 12.8232 13.5303 12.5303C13.8232 12.2374 13.8232 11.7626 13.5303 11.4697L12.8107 10.75H15.2504Z" fill="#4A4A4A"/>
</svg>

<svg viewBox="0 0 20 20" xmlns="http://www.w3.org/2000/svg"><path d="M7.75 5c0-.966.784-1.75 1.75-1.75h1c.966 0 1.75.784 1.75 1.75v1.76a.75.75 0 0 1-1.5 0v-1.76a.25.25 0 0 0-.25-.25h-1a.25.25 0 0 0-.25.25v1.76a.75.75 0 0 1-1.5 0v-1.76Z" fill="#5C5F62"/><path d="M8.5 12.49a.75.75 0 0 1 .75.75v1.76c0 .138.112.25.25.25h1a.25.25 0 0 0 .25-.25v-1.76a.75.75 0 0 1 1.5 0v1.76a1.75 1.75 0 0 1-1.75 1.75h-1a1.75 1.75 0 0 1-1.75-1.75v-1.76a.75.75 0 0 1 .75-.75Z" fill="#5C5F62"/><path d="M4 10c0 .414.336.75.75.75h2.44l-.72.72a.75.75 0 1 0 1.06 1.06l2-2a.75.75 0 0 0 0-1.06l-2-2a.75.75 0 1 0-1.06 1.06l.72.72h-2.44a.75.75 0 0 0-.75.75Z" fill="#5C5F62"/><path d="M15.25 10.75a.75.75 0 0 0 0-1.5h-2.44l.72-.72a.75.75 0 0 0-1.06-1.06l-2 2a.75.75 0 0 0 0 1.06l2 2a.75.75 0 1 0 1.06-1.06l-.72-.72h2.44Z" fill="#5C5F62"/></svg>
